X:54
T:Hedsor Dale. JJo.054
S:J.Jones MS,1801,N.Shrops.
A:N Shropshire
Z:Neil Brookes 2006
M:4/4
L:1/8
Q:1/4=120
K:C
g>f|fede fAdc|cBAG cdef|gefg adef|e3f/e/d2g>f|!
fede fAdc|cBAG cdef|g>abB dcBA|G6g2|!
B>cdB c>dec|d>efd {f}e3d|cAce a>bc’c|edcBA3B|!
c>dec g3f|e>fgec’3b|a>gab c’cde|f>g a/g/f/e/e2dg|!
e>fggg3g|c>deee3e|A>Bccc3c|d>eff fe dc|!
f>gaa agfe|c’>bc’d’ ga/b/ c’c/f/|e>fTd2c2|]

